svgs/unofficial/mtetram.svg

<svg height="500" width="500" xmlns="http://www.w3.org/2000/svg"><path d="m176.944 98.396-53.388 92.641h106.775zm147.112 0-53.387 92.641h106.775zm-220.668 127.482-53.388 92.641h106.775zm73.556 79.576-53.388-92.641h106.775zm73.556-79.576-53.388 92.641h106.776zm73.556 79.576-53.387-92.641h106.775zm73.556-79.576-53.387 92.641h106.775zm-220.668 127.48-53.388 92.642h106.775zm73.556 79.577-53.388-92.641h106.776zm73.556-79.577-53.387 92.642h106.775zm-74.358-307.358c24.476 0 45.85 13.349 57.302 33.196l-56.038 99.792a67.178 67.178 0 0 1 -1.34.012l-56.622-100.83c11.59-19.28 32.645-32.17 56.698-32.17zm208.44 294c5.636 9.813 8.862 21.206 8.862 33.358 0 35.791-27.98 65-63.108 66.642l-2.729-.381-57.163-99.618zm-302.138 0-56.886 99.646-1.158.354c-35.99-.684-64.956-30.268-64.956-66.663 0-11.782 3.036-22.851 8.363-32.457l.864-.88z"/></svg>

<svg width="500" height="500" xmlns="http://www.w3.org/2000/svg"><g fill="#000" fill-rule="nonzero"><path d="m176.944 98.396-53.388 92.641h106.775zM324.056 98.396l-53.387 92.641h106.775zM103.388 225.878 50 318.519h106.775zM176.944 305.454l-53.388-92.641h106.775zM250.5 225.878l-53.388 92.641h106.776zM324.056 305.454l-53.387-92.641h106.775zM397.612 225.878l-53.387 92.641H451zM176.944 353.358 123.556 446h106.775zM250.5 432.935l-53.388-92.641h106.776zM324.056 353.358 270.669 446h106.775zM249.698 46c24.476 0 45.85 13.349 57.302 33.196l-56.038 99.792a67.178 67.178 0 0 1-1.34.012L193 78.17C204.59 58.89 225.645 46 249.698 46ZM458.138 340c5.636 9.813 8.862 21.206 8.862 33.358 0 35.791-27.98 65-63.108 66.642l-2.729-.381L344 340.001ZM156 340l-56.886 99.646-1.158.354C61.966 439.316 33 409.732 33 373.337c0-11.782 3.036-22.851 8.363-32.457l.864-.88H156Z"/></g></svg>
